X: 308
T: Mazourka No. 4	 Op. 41
C: Fryderyk Chopin
%%abc-version 2.0
%%abcx-abcm2ps-target-version 5.9.1 (29 Sep 2008)
%%abc-creator hum2abc beta
%%abcx-conversion-date 2021/10/03 11:24:03
%%abc-edited-by Mateusz Mrugas
%%abc-edited-by Jacek Iwaszko
%%abc-edited-by Tomasz Sierawski
%%abc-edited-by Marta Lawrence
%%abcx-initial-encoding-date 2018-06-20
%%humdrum-veritas 3578306426
%%humdrum-veritas-data 2545503820
%%linebreak <none>
%%barnumbers 0
L: 1/4
M: 3/4
N: Derived from 041-1a-TR-004.krn
P: Quatre Mazurkas Pour le piano
Q: "Maestoso."
%%staves {1 2}
V: 1 clef=treble
V: 2 clef=bass
K: E
[V:1] z/ c/BA | 
[V:2] z3 | 
[V:1] G/>E/C=D | 
[V:2] z3 | 
[V:1] E/>F/G{/B}A | 
[V:2] z3 | 
[V:1] G/>E/C=D | 
[V:2] zG,[A,F,] | 
[V:1] E/>c/BA | 
[V:2] C,[ECG,][FCA,] | 
[V:1] G/>E/C=D | 
[V:2] C,G,[A,F,] | 
[V:1] E/>F/G{/B}A | 
[V:2] C,[EC][FCA,] | 
[V:1] G>E G/E/- | 
[V:2] C,[CG,]z | 
[V:1] E/e/dc | 
[V:2] E,,[GEB,][^^FE^A,] | 
[V:1] B/>G/E^^F | 
[V:2] E,,B,[C^A,] | 
[V:1] G/A/^A/B/^B/{/d}c/ | 
[V:2] E,[GEB,][^^FE^A,] | 
[V:1] B/>G/E^^F | 
[V:2] E,B,[C^A,] | 
[V:1] G/>e/dc | 
[V:2] E,,[GEB,][^^FE^A,] | 
[V:1] B/>G/E^^F | 
[V:2] E,B,[C^A,] | 
[V:1] G/A/^A/c/B/d/ | 
[V:2] E,[GB,]z | 
[V:1] f/{/ef}e/d/e/f/^^f/ | 
[V:2] z3 | 
[V:1] g>^ag/^^f/ | 
[V:2] ^B,,[FDG,][FDG,] | 
[V:1] g/^a/g/^^f/g/a/ | 
[V:2] C,[^ECG,][ECG,] | 
[V:1] g/^^f/g/^a/g/^f/ | 
[V:2] G,,[F^B,G,D,][FB,G,D,] | 
[V:1] {/f} !wedge!^e/z//^^d//.e.c | 
[V:2] [C,C,,][^ECG,^E,][ECG,E,] | 
[V:1] ^e>fe/^^d/ | 
[V:2] ^^G,,[^ED^B,^E,][EDB,E,] | 
[V:1] ^e/f/e/^^d/e/^^f/ | 
[V:2] ^A,,[^E^C^A,^E,][DCA,D,] | 
[V:1] ^a/g/^f/A/^B/G/ | 
[V:2] G,,[F^B,G,][FDG,] | 
[V:1] d/z//^e// c/ e/f/^^f/ | 
[V:2] C,[^ECG,]C, | 
[V:1] g>^ag/^^f/ | 
[V:2] [^B,,^B,,,][FDG,][FDG,] | 
[V:1] (3:2:6g/^a/g/^^f/g/a/(3g/f/g/ | 
[V:2] [C,C,,][^ECG,^E,][ECG,E,] | 
[V:1] (3^a/g/^^f/ (3g/a/g/ (3f/g/^f/ | 
[V:2] [G,,G,,,][F^B,G,D,][FB,G,D,] | 
[V:1] {/^ef} e/z//^^d//.ec | 
[V:2] [C,C,,][^ECG,^E,][ECG,E,] | 
[V:1] ^e>fe/^^d/ | 
[V:2] [^^G,,^^G,,,][^ED^B,^E,][EDB,E,] | 
[V:1] (3e/f/e/ (3^^d/e/f/ (3e/f/^^f/ | 
[V:2] [^A,,^A,,,][C^A,^E,][CA,^D,] | 
[V:1] ^a/g/f/^A/^B/G/ | 
[V:2] G,,[F^B,G,][FDG,] | 
[V:1] d/z//^e//c^B | 
[V:2] C,[^ECG,]z | 
[V:1] =B2^A/G/ & z^EE- | 
[V:2] z[B,C,][B,C,]- | 
[V:1] ^^F/G/^AB- & E^EE | 
[V:2] [B,C,][B,C,][B,C,] | 
[V:1] B/>^B/Bc & FFF | 
[V:2] F,,[^A,C,][A,C,]- | 
[V:1] ^e/>f/c2 & zFG- | 
[V:2] [A,C,][^A,C,]E,, | 
[V:1] c2B/^A/ & G^^FF- | 
[V:2] D,,[CD,][CD,]- | 
[V:1] ^^G/^A<ed/ & F^^FF | 
[V:2] [CD,][CD,][CD,] | 
[V:1] z/> ^^c/cd & GGG | 
[V:2] G,,[B,D,][B,D,]- | 
[V:1] ^^f/>g/d2- & zGF | 
[V:2] [B,D,][B,D,][B,G,] | 
[V:1] d/c/x2 & ^E/c/^eb | 
[V:2] x[K:clef=treble]xB & .C,,[^E2C2B,2]- | 
[V:1] ^a/g/^ec | 
[V:2] ^A/G/x2[K:clef=bass] & E^EC | 
[V:1] B/c/^e^a | 
[V:2] x[K:clef=treble]x^A & C,,[^E2C2B,2] | 
[V:1] g/f/cd3//^A// | 
[V:2] G/F/C.D/ z/[K:clef=bass] & Cx2 | 
[V:1] B/c/^eb | 
[V:2] x[K:clef=treble]xB & C,,[^E2C2B,2] | 
[V:1] ^a/>g/dg3//f// | 
[V:2] ^A/>G/DG3//F// | 
[V:1] cf/>^e/B | 
[V:2] CF/>^E/B,[K:clef=bass] | 
[V:1] ^e/d/cB | 
[V:2] ^E/D/CB, | 
[V:1] ^A/>A/[C^A,][ACA,]- | 
[V:2] xz[F,C,-] & ^A,/ z/F,,2 | 
[V:1] [A/A,/][G/G,/]{/^A}[G/G,/][^^F/^^F,/][GG,-] & C3 | 
[V:2] C,C,2 & ^E,,2E,, | 
[V:1] [F/^B,/G,/]z//[F//B,//]G,[F-B,] & xG,2- | 
[V:2] zG,,2- & D,,D,D,, | 
[V:1] F/^E/{/F}E/^^D/E & [C2G,2]G, | 
[V:2] xC,2- & G,,G,,x | 
[V:1] C/>D/ D/>C/ C3//D// & A,[A,F,]A, | 
[V:2] C,C,2- & F,,2F,, | 
[V:1] D/>^E/ E/>F/ F3//^^F// & [CG,]C2- | 
[V:2] C,[G,C,]z & G,,2z | 
[V:1] ^^F/>G/- G//G//A//G// ^^F/G/ & C^B,[^FB,] | 
[V:2] G,,,[DG,D,][DG,D,] | 
[V:1] d/z//^e//c3/^B/ & x^E2 | 
[V:2] C,,[CG,]C,- | 
[V:1] !wedge![^A/F/]z//[A//F//]^A,[AA,]- & xC2- | 
[V:2] [C,F,,]F,F,, & xC,2- | 
[V:1] [A/A,/][G/G,/][G/G,/][^^F/^^F,/][GG,] & C3 | 
[V:2] C,C,2 & ^E,,2E,, | 
[V:1] [F/^B,/]z//[F//B,//]G,[F-B,] & xG,2- | 
[V:2] zD,x & xG,,2- | 
[V:1] F/>^E/{/F}E/>^^D/E & [C2G,2]G, | 
[V:2] xC,2- & G,,G,,x | 
[V:1] C/>D/ D/>C/ C3//D// & A,A,A, | 
[V:2] xF,x & C,C,2- | 
[V:1] D/>^E/ E/>F/ F3//^^F// & [CG,]C2- | 
[V:2] C,[G,C,]G,, & G,,2x | 
[V:1] ^^F/>G/ G/>^^G/ G3//^A// & C[^F2^B,2]- | 
[V:2] G,,,[D2G,2D,2]- | 
[V:1] ^A/>B/ B/>^B/ B3//c// & [F2B,2]z | 
[V:2] [D2G,2D,2]z | 
[V:1] [c3E3C3] | 
[V:2] E,/A,/G,F, & A,,3- | 
[V:1] E/A/GF & [c3C3] | 
[V:2] [E,3A,,3] | 
[V:1] c3 & E/C/A,B, | 
[V:2] [E,3A,,3]- | 
[V:1] c2B & C/=D/E^E | 
[V:2] x2C,- & [E,2A,,2]G,, | 
[V:1] [A3F3A,3] | 
[V:2] C,/F,/E,=D, & F,,3- | 
[V:1] [A2F2A,2][=GE=G,] | 
[V:2] C,/A,,/F,,=G,, & F,,xx | 
[V:1] {/[=G2E2=G,2]}[F3=D3F,3]- | 
[V:2] A,,/=D,/C,B,, | 
[V:1] [F3=D3F,3] | 
[V:2] A,,/F,,/=D,,^B,,, | 
[V:1] [^E/C/^E,/] c/BA | 
[V:2] C,,z[FCA,] | 
[V:1] G/^E/C=D | 
[V:2] zG,[A,F,] & C,3 | 
[V:1] ^E/F/G{/AB}A | 
[V:2] C,z[FCA,] | 
[V:1] G/^E/C=D | 
[V:2] xG,A, & C,2F, | 
[V:1] ^E/c/BA | 
[V:2] C,,[^ECG,][FCA,] | 
[V:1] G/^E/C=D | 
[V:2] zG,A, & C,2F, | 
[V:1] ^E/F/G{/AB}A | 
[V:2] C,z[FCA,] | 
[V:1] G>CG/C/ & x2G- | 
[V:2] xG,z & C,2x | 
[V:1] [G/B,/]z//e//dc | 
[V:2] .E,,[GB,][^^FE^A,] | 
[V:1] B/G/E^^F | 
[V:2] xB,[C^A,] & E,3 | 
[V:1] G/A/^A/B/^B/{/d}c/ | 
[V:2] E,,[GEB,][^^FE^A,] | 
[V:1] B/G/E^^F | 
[V:2] xB,[C^A,] & E,3 | 
[V:1] G/z//e//dc | 
[V:2] E,,[K:clef=treble][GEB,][^^FE^A,][K:clef=bass] | 
[V:1] B/G/E^^F | 
[V:2] xB,[C^A,] & E,3 | 
[V:1] G/A/^A/c/B/d/ | 
[V:2] .E,,[K:clef=treble][GEB,G,]z | 
[V:1] f/{/ef}e/d/e/f/^^f/ | 
[V:2] z3[K:clef=bass] | 
[V:1] g>^ag/^^f/ | 
[V:2] [^B,,^B,,,][FDG,][FDG,] | 
[V:1] g/a/g/^^f/g/a/ | 
[V:2] [C,C,,][^ECG,^E,][ECG,E,] | 
[V:1] g/^^f/g/a/g/^f/ | 
[V:2] [G,,G,,,][F^B,G,D,][FB,G,D,] | 
[V:1] {/^ef} e/z//d//.e.c | 
[V:2] [C,C,,][^ECG,^E,][ECG,E,] | 
[V:1] ^e>fe/^^d/ | 
[V:2] [^^G,,^^G,,,][^ED^B,^E,][EDB,E,] | 
[V:1] ^e/f/e/^^d/e/^^f/ | 
[V:2] [^A,,^A,,,][^EC^A,^E,][DCA,D,] | 
[V:1] ^a/g/f/^A/^B/G/ | 
[V:2] G,,[F^B,G,D,][FB,G,D,] | 
[V:1] d/z//^e// c/ e/f/^^f/ | 
[V:2] C,,[^ECG,^E,][ECG,E,] | 
[V:1] g>^a!mordent!g/^^f/ & xGG- | 
[V:2] .[^B,,^B,,,][FDG,][FDG,] | 
[V:1] g/^a/!mordent!g/^^f/g/a/ & GGG- | 
[V:2] [C,C,,][^ECG,^E,][ECG,E,] | 
[V:1] !mordent!g/^^f/g/^a/!mordent!g/^f/ & GGG- | 
[V:2] [G,,G,,,][F^B,G,D,][FB,G,D,] | 
[V:1] e/z//^^d//ec & GGG- | 
[V:2] [C,C,,][^ECG,^E,][ECG,E,] | 
[V:1] ^e>f!mordent!e/^^d/ & G^^GG | 
[V:2] [^E,,^E,,,][^ED^B,^E,][EDB,E,] | 
[V:1] ^e/!accent![^e'/c'/]!accent![d'/^b/]!accent![c'/^a/][a/f/][f/A/] | 
[V:2] [^A,,^A,,,][^EC^A,^E,][DA,F,] | 
[V:1] [^e/G/]z//!mordent![d//F//][^^c/^E/][d/F/][f/A/]z//[^B//D//] | 
[V:2] G,,[^B,G,D,][B,G,D,] | 
[V:1] [d/F/]z//!mordent![c//^E//]^B/z//c//^e/z//^A// & x2!accent!E- | 
[V:2] C,,[GCG,][GCG,] | 
[V:1] G/z//^B//^A/z//G/<B/A// & E[F^B,][FB,-] | 
[V:2] G,,[DG,D,]!accent![DG,D,] | 
[V:1] G/z//^B//^A/z//G/<B/A// & B,CC | 
[V:2] C,[^EG,^E,]!accent![EG,E,] | 
[V:1] G/!mordent!d/^^c/z//d//f/z//^B// & xFF | 
[V:2] G,,[^B,G,D,]!accent![B,G,D,] | 
[V:1] d/!mordent!c/^B/z//c//^e/z//^A// & x^EE | 
[V:2] .C,,[GCG,]!accent![GCG,] | 
[V:1] G/z//^B//^A/z//G/<B/A// & x[F^B,][FB,] | 
[V:2] G,,[DG,D,]!accent![DG,D,] | 
[V:1] G/z//^B//^A/z//G/<^B/c// & xC!accent!C | 
[V:2] G,,[^EG,^E,][EG,E,] | 
[V:1] z/> c/^B/z//^A/<c/B// & xE!accent!E | 
[V:2] [G,,G,,,][^^FCG,][FCG,] | 
[V:1] ^A/z//e//d/z//c//e & x^^F!accent!F | 
[V:2] [G,G,,][K:clef=treble][^ACG,][ACG,][K:clef=bass] | 
[V:1] f/>c/^B/z//^A/<c/B// & xE!accent!E | 
[V:2] [G,,G,,,][^^FCG,][FCG,] | 
[V:1] ^A/z//e//d/z//c/<^f/e// & x^^F!accent!F | 
[V:2] [G,G,,][K:clef=treble][^ACG,][ACG,][K:clef=bass] | 
[V:1] d/z//d//c/z//^B/<d/c// & x^F!accent!F | 
[V:2] [G,,G,,,][K:clef=treble][ADG,][ADG,][K:clef=bass] | 
[V:1] ^B/z//f//e/z//d//f- & xA!accent!A | 
[V:2] [G,G,,][K:clef=treble][^BFD^B,][BFDB,][K:clef=bass] | 
[V:1] f/>d/c/z//^B/<d/c// & xFF | 
[V:2] [G,,G,,,][K:clef=treble][AD^B,G,][ADB,G,][K:clef=bass] | 
[V:1] ^B/z//f//e/z//d//e/f/ & xAA | 
[V:2] [G,G,,][K:clef=treble][^BFD^B,][BFDB,][K:clef=bass] | 
[V:1] [g/e/c/G/][c'/c/][bB][aA] | 
[V:2] [C,/C,,/][C/C,/][B,B,,][A,A,,] | 
[V:1] [g/e/c/G/]z//[e//E//][cC][=d=D] | 
[V:2] [G,/E,/C,/G,,/]z//[E,//E,,//][C,C,,][=D,=D,,] | 
[V:1] [e/c/E/]z//[f//F//][gG][aA] | 
[V:2] [E,/C,/G,,/E,,/]z//[F,//F,,//][G,G,,][A,A,,] | 
[V:1] [g/e/c/G/]z//[e//E//][cC][=d=D] | 
[V:2] [G,/E,/C,/G,,/]z//[E,//E,,//][C,C,,][=D,=D,,] | 
[V:1] [e/c/E/]z//[e//c//E//][ecE][ecE] | 
[V:2] [E,/E,,/]z//[C//C,//][B,B,,][A,A,,] | 
[V:1] [e/c/E/]z//[e//c//E//][ecE][ecE] | 
[V:2] [G,/G,,/]>[E,/E,,/][C,C,,][=D,=D,,] | 
[V:1] [e/c/E/]z//[e//c//E//][ecE][ecE] | 
[V:2] [E,/E,,/]>[F,/F,,/][G,G,,][A,A,,] | 
[V:1] [e/c/E/]z//[e//c//E//][ecE]!accent![d^^FC] | 
[V:2] [G,/G,,/]>[E,/E,,/][C,C,,][D,D,,] | 
[V:1] E/>D/F3/^B,/ | 
[V:2] F,2F, & [G,,2G,,,2][G,,G,,,] | 
[V:1] D/>C/E3/A,/ | 
[V:2] E,2E, & [G,,2C,,2][G,,C,,] | 
[V:1] G,/>A,/G,G,- | 
[V:2] D,2D, & [G,,2^B,,,2][G,,B,,,] | 
[V:1] G,/>A,/G,2 | 
[V:2] E,2E, & [G,,2C,,2][G,,C,,] | 
[V:1] E/>D/F3/^B,/ | 
[V:2] F,2F, & [G,,2G,,,2][G,,G,,,] | 
[V:1] D/>C/E3/A,/ | 
[V:2] E,2E, & [G,,2C,,2][G,,C,,] | 
[V:1] G,/>A,/G,G,- | 
[V:2] D,2D, & [G,,2^B,,,2][G,,B,,,] | 
[V:1] G,/>A,/G,2- | 
[V:2] E,2E, & [G,,2C,,2][G,,C,,] | 
[V:1] G,/>A,/G,G,- | 
[V:2] D,2D, & [G,,2^B,,,2][G,,B,,,] | 
[V:1] G,/>A,/G,2- | 
[V:2] E,2E, & [G,,2C,,2][G,,C,,] | 
[V:1] G,/>A,/G,2- | 
[V:2] E,2D, & [G,,2G,,,2][G,,G,,,] | 
[V:1] G,2x | 
[V:2] D,/>E,/D,3/D,/ & [G,,2G,,,2][G,,G,,,] | 
[V:1] !fermata![G,3C,3] |]  
[V:2] !fermata![G,,3C,,3] |]
